X:1
T:The Black Mill (Am Muilean Dubh)
M:C
L:1/8
Q:80
C:Trad.
S:Reel
K:HP
a|: |
{ef}e2{GdG}ef{gf}g2e/2a3/2|
B/2{d}G3/2{gde}d3/2B/2{g}d3/2B/2{d}G/2a|
{ef}e2{GdG}ef{gf}g2e/2a3/2|  !
B/2{d}G3/2{gde}d3/2B/2{g}A3/2{d}A/2{e}A/2a3/2:|
e3/2A/2{gef}e3/2d/2{gef}e3/2A/2{GAG}A/2g3/2|
B/2{d}G3/2{gde}d3/2B/2{g}d3/2B/2{d}G/2a|  !
e3/2A/2{gef}e3/2d/2{gef}e3/2A/2{GAG}A/2g3/2|
B/2{d}G3/2{gde}d3/2B/2{g}A3/2{d}A/2{e}A/2a3/2| |
{ef}e2{GdG}ef{gf}g2f/2e3/2|  !
{g}d/2g3/2{a}B/2g3/2{a}d/2g3/2{a}B/2a|
{ef}e2{GdG}efg/2a3/2e/2g3/2|
{a}d/2g3/2{a}B/2g3/2{a}A3/2{d}A/2{e}A3/2 !

